!!!OTL: I Cried for You
!!!COM: Freed, Arthur
!!!COM: Arnheim, Gus
!!!COM: Lyman, Abe
!!!LAR: Frey, Hugo
!! "I Cried For You" by Arthur Freed, Gus Arnheim, and Abe Lyman
!! from "Barbershop Memories" compiled and arranged by Hugo Frey
!! copyright 1975 by EMI Music Publ. Ltd.; p. 14; alla breve; in F major
**kern	**kern	**kern	**kern
*Ivox	*Ivox	*Ivox	*Ivox
*M2/2	*M2/2	*M2/2	*M2/2
*F:	*F:	*F:	*F:
=1	=1	=1	=1
1FF	2F	2A	2c
.	{2A	[2e	[2c
=2	=2	=2	=2
2AA	2G}	2e]	2c]
{4AA	2F#	2d	2c
4AA-}	.	.	.
=3	=3	=3	=3
{1GG	{2Fn	[1D	2Bn
.	4A	.	[2f
.	4c	.	.
=4	=4	=4	=4
2G}	2B}	2D]	2f]
4G	4B	4E	4e
4G	4B	4F	4d
=5	=5	=5	=5
2GG	2B-	2c	2f
4C	4c	4A	4e
4C	4B-	4G	4e
=6	=6	=6	=6
4GG	4B-	4c	4e
2C	2c	2A	2e
4C	4B-	4G	4e
=7	=7	=7	=7
{2FF	1A	1D	{2d
2FF#}	.	.	4c
.	.	.	4d}
=8	=8	=8	=8
{2GG	{4B-	{4d	{4f
.	4G	4B-	4d
2C}	4F	4G	4B-
.	4E}	4E}	4G}
=9	=9	=9	=9
2FF	2C	2E	2G#
2FF	2C	2F	2A
=10	=10	=10	=10
2AA	2E	2G	2c
4E-	4F#	4A	4c
4E-	4F#	4B-	4B-
=11	=11	=11	=11
4r	4r	1c	4r
{4En	2.G	.	2.B-
4F	.	.	.
4D}	.	.	.
=12	=12	=12	=12
2.C	2.G	2.E	2.B-
4r	4r	4r	4r
=13	=13	=13	=13
2GG	2E	2C	2B-
2C	2G	2E	2B-
=14	=14	=14	=14
2C	2B-	2G	2e
2C	2G	2B-	2e
=15	=15	=15	=15
4r	4r	1d	4r
4BBn	4A-	.	4f
4BB	4G	.	4f
4BB	4F	.	4f
=16	=16	=16	=16
2C	{4G	1c	2e
.	4An}	.	.
2C	{4B-	.	2e
.	4G}	.	.
=17	=17	=17	=17
1FF	2F	2A	2c
.	[2A	[2e	[2c
=18	=18	=18	=18
2AA	2G]	2e]	2c]
{4AA	2F#	2d	2c
4AA-}	.	.	.
=19	=19	=19	=19
{1GG	{2Fn	[1D	2Bn
.	4A	.	[2f
.	4c	.	.
=20	=20	=20	=20
2G}	2Bn}	2D]	2f]
4G	4B	4E	4e
4G	4B	4F	4d
=21	=21	=21	=21
2BB	2B-	2c	2f
2C	2B-	2c	2e
=22	=22	=22	=22
2G	2B-	2c	2e
2E	2G	2B-	2d
=23	=23	=23	=23
2AA	2E	[1A	2c#
4BBn	4E	.	4d
4C	4G	.	4d#
=24	=24	=24	=24
2C#	2G	2A]	2e
2r	2r	4G#	2r
.	.	4A	.
=25	=25	=25	=25
2D	2F#	2d	2c
2E	2G	2d	2c
=26	=26	=26	=26
2Fn	2A-	2d	2c
4F#	4An	4d	4d
4F#	4A	4c#	4c#
=27	=27	=27	=27
4Fn	4A-	4d	4d
4F	4A-	4c#	4c#
4E	4G	4d	4cn
[4D	[4F#	[4d	[4c
=28	=28	=28	=28
4D]	4F#]	4d]	4c]
2D	2F#	2A	2c
4D	4F#	4G#	4c
=29	=29	=29	=29
2GG	2Fn	2A	2Bn
2GG	2F	2A	2c
=30	=30	=30	=30
2BB-	2F	2A	2c#
4BBn	4F	4A	4d
4BB	4F	4G#	4d
=31	=31	=31	=31
4BBn	4F	4A	4d
4BB	4F	4G#	4d
4AA	4F	4A	4cn
[4GG	[4F	[4A	[4Bn
=32	=32	=32	=32
4GG]	4F]	4A]	4B]
2.GG	2.F	2.D	2.Bn
=33	=33	=33	=33
1C	2F	2A	2c
.	{2A	[2e	[2c
=34	=34	=34	=34
2AA	2G}	2e]	2c]
{4AA	2F#	2d	2c
4AA-}	.	.	.
=35	=35	=35	=35
{1GG	{2Fn	[1D	2Bn
.	4A	.	[2f
.	4c	.	.
=36	=36	=36	=36
2G}	2Bn}	2D]	2f]
4G	4B	4E	4e
4G	4B	4F	4d
=37	=37	=37	=37
2GG	2B-	2c	2f
4C	4c	4A	4e
4C	4B-	4G	4e
=38	=38	=38	=38
4GG	4B-	4c	4e
2C	2c	2A	2e
4C	4B-	4G	4e
=39	=39	=39	=39
2FF	2A	{1F	2c
4BB-	4A-	.	4d
4BB-	4A-	.	4d
=40	=40	=40	=40
1F;	1An;	1d;	1f;
==	==	==	==
*-	*-	*-	*-
